X:196
T:Trefforrest Waltz
M:3/4
L:1/8
Q:120
C:Trad. arr. Dwy Droed Chwith
R:Waltz
K:G
D2 | G2 GD GB | G2 GD GB | G2 GD GB | cB AG FE |
F2 FD FA | F2 FD FA | B2 BG AF | E4 :||: BA |
G2 A2 B2 | c4 cB | A2 B2 c2 | d4 BA | G2 A2 B2|
A2 B2 c2 | Bc BA BA | G4 :||: D2 | G2 GD GB|
BA A3 G | F2 FD FA | AG G3 D | G2 GD G B|
BA A3 G | F2 FD FA | G4 :||
